X:1551
T:Larry Lavin's Choice
R:reel
N:no source given.
B:"O'Neill's Dance Music of Ireland, 1551"
T: ro.ga la.mrais ui la.bain.
Z:transcribed by John B. Walsh, walsh@math.ubc.ca 8/23/96
M:C|
L:1/8
K:D
(dB) "Segno"|A2 (FA) ABdf|edfd edBd|A2(FA) ABdB|AFEG FDDB|
A2 (FA) ABdf|edfd edBd|A2 (FA) ABdB|AFEG FD D2||
FAdA BAdA|Beed (cA) A2|FAdA BAdF|GFEG (FD) D2|
FAdA BAdA|Beed (cA) A2|FAAc BAdB|AFEG (FD) D2 "Segno"||


